svg/cornerCrosshairs.svg

<?xml version="1.0" encoding="UTF-8" standalone="no"?>
<!-- Created with Inkscape (http://www.inkscape.org/) -->

<svg
   width="32"
   height="32"
   viewBox="0 0 8.4666666 8.4666668"
   version="1.1"
   id="svg5"
   inkscape:version="1.1.2 (b8e25be8, 2022-02-05)"
   sodipodi:docname="cornerCrosshairs.svg"
   xmlns:inkscape="http://www.inkscape.org/namespaces/inkscape"
   xmlns:sodipodi="http://sodipodi.sourceforge.net/DTD/sodipodi-0.dtd"
   xmlns="http://www.w3.org/2000/svg"
   xmlns:svg="http://www.w3.org/2000/svg"
   xmlns:rdf="http://www.w3.org/1999/02/22-rdf-syntax-ns#"
   xmlns:cc="http://creativecommons.org/ns#">
  <sodipodi:namedview
     id="namedview7"
     pagecolor="#ffffff"
     bordercolor="#111111"
     borderopacity="1"
     inkscape:pageshadow="0"
     inkscape:pageopacity="0"
     inkscape:pagecheckerboard="1"
     inkscape:document-units="mm"
     showgrid="true"
     width="32mm"
     units="px"
     objecttolerance="10000"
     guidetolerance="10000"
     inkscape:snap-perpendicular="true"
     inkscape:snap-tangential="true"
     inkscape:zoom="34.90625"
     inkscape:cx="16"
     inkscape:cy="18.291853"
     inkscape:window-width="2560"
     inkscape:window-height="1301"
     inkscape:window-x="0"
     inkscape:window-y="25"
     inkscape:window-maximized="0"
     inkscape:current-layer="layer1">
    <inkscape:grid
       type="xygrid"
       id="grid9"
       units="px"
       empspacing="4" />
  </sodipodi:namedview>
  <defs
     id="defs2" />
  <g
     inkscape:label="Layer 1"
     inkscape:groupmode="layer"
     id="layer1">
    <path
       id="path5628"
       style="fill:#000000;fill-opacity:1;stroke:none;stroke-width:0"
       d="m 20,0 v 1 h 4.068359 A 7.9999994,7.9999994 0 0 0 31,7.9316406 V 12 h 1 V 8 6 0 h -6 -2 z m 6.09375,1 H 31 V 5.90625 A 5.9999997,5.9999997 0 0 1 26.09375,1 Z"
       transform="scale(0.26458333)" />
    <path
       id="path6198"
       style="fill:#000000;fill-opacity:1;stroke:none;stroke-width:0"
       d="M 3.1750005,0 V 0.26458333 H 2.0985806 A 2.1166665,2.1166665 0 0 1 0.26458381,2.0985799 V 3.175 H 4.7666667e-7 V 2.1166666 1.5875 0 H 1.5875006 2.1166672 Z M 1.5626959,0.26458333 H 0.26458381 V 1.5626953 A 1.5874999,1.5874999 0 0 0 1.5626959,0.26458333 Z" />
    <path
       id="path6208"
       style="fill:#000000;fill-opacity:1;stroke:none;stroke-width:0"
       d="M 5.2916666,8.466666 V 8.2020827 h 1.07642 A 2.1166665,2.1166665 0 0 1 8.2020832,6.3680861 V 5.2916662 h 0.2645834 v 1.0583332 0.5291666 1.5875 h -1.5875 -0.5291667 z M 6.9039713,8.2020827 h 1.2981119 v -1.298112 a 1.5874999,1.5874999 0 0 0 -1.2981119,1.298112 z" />
    <path
       id="path6210"
       style="fill:#000000;fill-opacity:1;stroke:none;stroke-width:0"
       d="M 3.1750005,8.466666 V 8.2020827 H 2.0985806 A 2.1166665,2.1166665 0 0 0 0.26458381,6.3680861 v -1.07642 H 4.7666667e-7 v 1.0583333 0.5291666 1.5875 H 1.5875006 2.1166672 Z M 1.5626959,8.2020827 H 0.26458381 v -1.298112 a 1.5874999,1.5874999 0 0 1 1.29811209,1.298112 z" />
  </g>
  <metadata
     id="metadata33">
    <rdf:RDF>
      <cc:Work
         rdf:about="">
        <cc:license
           rdf:resource="http://creativecommons.org/licenses/by-sa/4.0/" />
      </cc:Work>
      <cc:License
         rdf:about="http://creativecommons.org/licenses/by-sa/4.0/">
        <cc:permits
           rdf:resource="http://creativecommons.org/ns#Reproduction" />
        <cc:permits
           rdf:resource="http://creativecommons.org/ns#Distribution" />
        <cc:requires
           rdf:resource="http://creativecommons.org/ns#Notice" />
        <cc:requires
           rdf:resource="http://creativecommons.org/ns#Attribution" />
        <cc:permits
           rdf:resource="http://creativecommons.org/ns#DerivativeWorks" />
        <cc:requires
           rdf:resource="http://creativecommons.org/ns#ShareAlike" />
      </cc:License>
    </rdf:RDF>
  </metadata>
</svg>

<svg width="32" height="32" viewBox="0 0 8.467 8.467" xmlns="http://www.w3.org/2000/svg"><path style="fill:#000;fill-opacity:1;stroke:none;stroke-width:0" d="M20 0v1h4.068A8 8 0 0 0 31 7.932V12h1V0h-8zm6.094 1H31v4.906A6 6 0 0 1 26.094 1Z" transform="scale(.26458)"/><path style="fill:#000;fill-opacity:1;stroke:none;stroke-width:0" d="M3.175 0v.265H2.099A2.117 2.117 0 0 1 .265 2.099v1.076H0V0h2.117ZM1.563.265H.265v1.298A1.587 1.587 0 0 0 1.563.265ZM5.292 8.467v-.265h1.076a2.117 2.117 0 0 1 1.834-1.834V5.292h.265v3.175H6.35zm1.612-.265h1.298V6.904a1.587 1.587 0 0 0-1.298 1.298zM3.175 8.467v-.265H2.099A2.117 2.117 0 0 0 .265 6.368V5.292H0v3.175h2.117Zm-1.612-.265H.265V6.904a1.587 1.587 0 0 1 1.298 1.298z"/></svg>
